X: 208
T: The Lough Carra Fisherman
B: O'Neill's 208
N: "Lively"
N: "Collected by J.O'Neill"
Z: 1997 by John Chambers <jc@trillian.mit.edu>
M: 2/4
L: 1/8
K:A
E \
| E.A.A.A | .A.A.A.A | cded | dcBA \
| GBBB | BBBB | efed | dcBA |
| cAAA | AAAA | EAAB | cAAc \
| dfff | aeee | dfed | cA A ||
|| (c/d/) \
| eaaa | aeee | fbbb | geeg \
| agfe | fedc | dfed | cAcd |
| eaaa | aeee | fbbb | geeg \
| agfe | (f/g/a) ec | dfed | cA A ||


